!!!COM:	Pierre de la Rue
**kern	**kern
*part2	*part1
*staff2	*staff1
*clefGv2	*clefG2
*k[b-]	*k[b-]
*M2/1	*M2/1
=1-	=1-
1.d	0r
4c	.
4B-	.
=2	=2
2c	1r
4B-	.
4A	.
1G	1g
=3	=3
0F	1.a
.	4g
.	4f
=4	=4
1r	2g
.	2e
1B-	1d
=5	=5
1c	0c
1e	.
=6	=6
0d	1r
.	1f
=7	=7
1r	1g
1B-	1b-
=8	=8
2c	0a
1d	.
4c	.
4B-	.
=9	=9
4c	1r
4B-	.
4A	.
4G	.
1A	1f
=10	=10
2G	2g
1c	1a
4B-	4g
4A	4f
=11	=11
4B-	4g
4A	4f
1d	4e
.	4d
.	1e
2c	.
=12	=12
0d	2d
.	2f
.	2g
.	[2a
=13	=13
2r	2a]
2G	1b-
2B-	.
2c	4a
.	4g
=14	=14
2d	2.f
2D	.
.	4g
2F	2a
2G	[2b-
=15	=15
1A	2b-]
.	2.a
1B-	.
.	4g
.	2g
=16	=16
0A	1a
.	2r
.	[2e
=17	=17
1r	4e]
.	4f
.	4g
.	4e
2r	2f
[2A	4e
.	4d
=18	=18
4A]	1e
4B-	.
4c	.
4A	.
2B-	2d
4A	2g
4G	.
=19	=19
1A	2f
.	4e
.	4d
2G	2e
2c	[2a
=20	=20
2B-	2a]
4A	2.g
4G	.
1A	.
.	4f
.	2f
=21	=21
1G	2g
.	2b-
2r	2b-
2d	2b-
=22	=22
2d	2a
1d	2.b-
.	4a
2c	[2cc
=23	=23
4e	4cc]
4d	4b-
4c	4a
4B-	4g
4A	4f
4G	4e
[2c	[2a
=24	=24
4c]	2a]
4B-	.
4A	2.g
4G	.
1A	.
.	4f
.	2f
=25	=25
0G	0g
==	==
*-	*-
